X: 183
T: 184. Christ lag in Todesbanden
N: Derived from chor184.krn
C: Johann Sebastian Bach
%%abc-version 2.0
%%abcx-abcm2ps-target-version 5.9.1 (29 Sep 2008)
%%abc-creator hum2abc beta
%%abcx-conversion-date 2019/03/11 17:28:18
%%abc-edited-by Craig Stuart Sapp
%%humdrum-veritas 2251088627
%%humdrum-veritas-data 1620971304
%%
%%barnumbers 0
L: 1/4
M: C
%%staves [1 2 3 4]
V: 1 clef=treble
V: 2 clef=treble
V: 3 clef=treble-8
V: 4 clef=bass
K: C
[V:1] A [I:setbarnb 1]| 
[V:2] F | 
[V:3] d/c/ | 
[V:4] D, | 
[V:1] ^GA/B/cd | 
[V:2] EEEE | 
[V:3] Bc/^G/AB | 
[V:4] E,/D,/C,/B,,/A,,^G,, | 
[V:1] cB!fermata!AA | 
[V:2] EE/D/!fermata!^CE | 
[V:3] A^G!fermata!EA | 
[V:4] A,,E,,!fermata!A,,^C, | 
[V:1] FGAG/F/ | 
[V:2] D=CC/^C/D | 
[V:3] A/_B/ A/=G/ F/G/A | 
[V:4] D,E,F,/E,/D, | 
[V:1] E/D/E!fermata!D2 :|]  
[V:2] D^C!fermata!A,2 :|]  
[V:3] _BE/G/!fermata!F2 :|]  
[V:4] G,,/A,,//_B,,//A,,!fermata!D,,2 :|]  
[V:1] D/E/FGD/E/ | 
[V:2] A,DD3/^C/ | 
[V:3] F/G/AG/A/_B | 
[V:4] D,3/C,/ _B,,/A,,/G,, | 
[V:1] FG!fermata!AA | 
[V:2] D=C!fermata!CF/G/ | 
[V:3] AG!fermata!Fc | 
[V:4] D,E,!fermata!F,F,/E,/ | 
[V:1] d^cde/d/ | 
[V:2] AGAE | 
[V:3] fed/=c/B | 
[V:4] D,E,^F,^G, | 
[V:1] =cB!fermata!AB | 
[V:2] EE/D/!fermata!CD | 
[V:3] A^G!fermata!E=F | 
[V:4] A,E,!fermata!A,,D, | 
[V:1] cA/_B/cG | 
[V:2] ECFE- | 
[V:3] =GFFc/_B/ | 
[V:4] C,F,A,,/_B,,/C, | 
[V:1] FE!fermata!D2 | 
[V:2] E/D^C/!fermata!D2 | 
[V:3] AG!fermata!F2 | 
[V:4] D,A,,!fermata!_B,,2 | 
[V:1] AGF2 | 
[V:2] =C/D/E-E/^C/D- | 
[V:3] FE/A/A_B- | 
[V:4] F,^C,D,_B,, | 
[V:1] E2!fermata!D2 |]  
[V:2] D^C!fermata!A,2 |]  
[V:3] BG/F/!fermata!^F2 |]  
[V:4] G,,A,,!fermata!D,,2 |]  



